X: 97
M:C|
L:1/8
K:G
vg2dc B2vAG | .F(GA)(B c).A.A(f | g)(de)(c B2)AG | \
.D(FA)(c B)GG2 |
vg2dc B2AG | .F(GA)(B c).A.A(f | g)(de)(c B2)AG | \
|]vDGBG AGBG | DGBG (cA)(Ac) | .B(de)(f g)(ed)u.c | BdAc BGGB |
uDGBG AGBG |  DGBG (cA)(Ac) | .B(de)(f g)(ed)u.c |\
(Bd) (Ac) (BG)G2 |]


